assets/gcpcontaineroptimizedos/original.svg

<svg height="24" width="24" xmlns="http://www.w3.org/2000/svg"><path d="m12 2a10 10 0 1 0 10 10 10 10 0 0 0 -10-10m0 18a8 8 0 0 1 -4.18-1.18l3.58-2.07v-4.5l-3.89-2.25v4.52l2.75 1.59-3.46 2a8 8 0 0 1 1.28-13.11v4l3.92 2.28 3.9-2.28-3.9-2.23-2.76 1.59v-3.89a8 8 0 0 1 10.31 4.7 8.1 8.1 0 0 1 .51 2.83v.07l-3.6-2.07-3.9 2.26v4.51l3.9-2.25v-3.18l3.45 2a8 8 0 0 1 -7.91 6.66" fill="#4285f4"/></svg>

<svg xmlns="http://www.w3.org/2000/svg" width="24" height="24"><path d="M12 2a10 10 0 1 0 10 10A10 10 0 0 0 12 2m0 18a8 8 0 0 1-4.18-1.18l3.58-2.07v-4.5L7.51 10v4.52l2.75 1.59-3.46 2A8 8 0 0 1 8.08 5v4L12 11.28 15.9 9 12 6.77 9.24 8.36V4.47a8 8 0 0 1 10.31 4.7 8.1 8.1 0 0 1 .51 2.83v.07L16.46 10l-3.9 2.26v4.51l3.9-2.25v-3.18l3.45 2A8 8 0 0 1 12 20" data-name="Product Icons" fill="#4285f4"/></svg>
